X:3580
T:Miss MacLeod's (Irish version)
M:4/4
O:Ireland
O:England
R:Reel
Z:Richard Robinson 
%%TUNEURL: http://www.leeds.ac.uk/music/Info/RRTuneBk/gettune/00000975.html
%%ID:00000975
K:G
G2 BG dG BG|B2 BA Bc BA|\
G2 BG dG BG|A2 AG Ac BA|\
G2 BG dG BG|B2 BA B3 f|\
gc cB cd ef| ge dB Ac BA:|\
|:G2 gf ef gd|B2 BA Bc BA| \
G2 gf ef ge|ag fe dc BA| \
G2 gf ef gd|B2 BA B3 f| \
gc cB cd ef|ge dB Ac BA :|
